Obsidian/status/16s/system-file-manager-panel.svg

<svg height="16" width="16" xmlns="http://www.w3.org/2000/svg"><path d="m4.0000005 1c-.554001 0-1.0000011.446-1.0000011 1v2c0-.554.4460001-1 1.0000011-1h7.9999995c.554 0 1 .446 1 1v-2c0-.554-.446-1-1-1zm0 3c-.554001 0-1.0000011.446-1.0000011 1v1h10.0000006v-1c0-.554-.446-1-1-1zm-2.000001 3c-.554 0-1.00000003.446-1.00000003 1v6c0 .554.44600003 1 1.00000003 1h12.0000005c.554 0 1-.446 1-1v-6c0-.554-.446-1-1-1zm4.2500005 2.9999999h3.4999999c.1389999 0 .2500001.1110001.2500001.2500001v.5c0 .139-.1120001.25-.2500001.25h-3.4999999c-.139 0-.25-.111-.25-.25v-.5c0-.139.112-.2500001.25-.2500001z" fill="#d3dae3"/></svg>

<svg xmlns="http://www.w3.org/2000/svg" width="16" height="16" version="1">
 <defs>
  <style id="current-color-scheme" type="text/css">
   .ColorScheme-Text { color:#d3dae3; } .ColorScheme-Highlight { color:#5294e2; }
  </style>
 </defs>
 <path style="fill:currentColor" class="ColorScheme-Text" d="M 4.0000005,1 C 3.4459995,1 2.9999994,1.446 2.9999994,2 l 0,2 c 0,-0.554 0.4460001,-1 1.0000011,-1 L 12,3 c 0.554,0 1,0.446 1,1 L 13,2 C 13,1.446 12.554,1 12,1 Z m 0,3 C 3.4459995,4 2.9999994,4.446 2.9999994,5 l 0,1 L 13,6 13,5 C 13,4.446 12.554,4 12,4 Z m -2.000001,3 c -0.554,0 -1.00000003,0.446 -1.00000003,1 l 0,6 c 0,0.554 0.44600003,1 1.00000003,1 L 14,15 c 0.554,0 1,-0.446 1,-1 L 15,8 C 15,7.446 14.554,7 14,7 Z M 6.25,9.9999999 l 3.4999999,0 C 9.8889998,9.9999999 10,10.111 10,10.25 l 0,0.5 C 10,10.889 9.8879999,11 9.7499999,11 L 6.25,11 C 6.111,11 6,10.889 6,10.75 l 0,-0.5 C 6,10.111 6.112,9.9999999 6.25,9.9999999 Z"/>
</svg>
